**kern	**text	**kern	**text	**kern	**text	**kern	**text	**kern	**text
*staff5	*staff5	*staff4	*staff4	*staff3	*staff3	*staff2	*staff2	*staff1	*staff1
*I"Basso	*	*I"Tenore	*	*I"Alto	*	*I"Soprano II	*	*I"Soprano I	*
=1-	=1-	=1-	=1-	=1-	=1-	=1-	=1-	=1-	=1-
*clefF4	*	*clefGv2	*	*clefGv2	*	*clefG2	*	*clefG2	*
*k[f#]	*	*k[f#]	*	*k[f#]	*	*k[f#]	*	*k[f#]	*
*met(c|)	*	*met(c|)	*	*met(c|)	*	*met(c|)	*	*met(c|)	*
*M2/2	*	*M2/2	*	*M2/2	*	*M2/2	*	*M2/2	*
[1E	O	[1G	O	[1B	O	1r	.	[1e	O
=2	=2	=2	=2	=2	=2	=2	=2	=2	=2
2E\]	.	2G/]	.	2B\]	.	1r	.	2e/]	.
2D\	vos	2A/	vos	2d\	vos	.	.	2f#/	vos
=3	=3	=3	=3	=3	=3	=3	=3	=3	=3
1G	o-	1B	o-	1d	o-	1r	.	1g	o-
=4	=4	=4	=4	=4	=4	=4	=4	=4	=4
1C	-mnes,	1c	-mnes,	1e	-mnes,	1r	.	1g	-mnes,
=5	=5	=5	=5	=5	=5	=5	=5	=5	=5
2C/	qui	2c\	qui	2e\	qui	1r	.	2g/	qui
2C/	tran-	2c\	tran-	2e\	tran-	.	.	2g/	tran-
=6	=6	=6	=6	=6	=6	=6	=6	=6	=6
1C	-si-	1c	-si-	1e	-si-	1r	.	1g	-si-
=7	=7	=7	=7	=7	=7	=7	=7	=7	=7
2C/	-tis	2c\	-tis	2e\	-tis	1r	.	2g/	-tis
2C/	per	2c\	per	2e\	per	.	.	2g/	per
=8	=8	=8	=8	=8	=8	=8	=8	=8	=8
1D	vi-	1A	vi-	1d	vi-	1r	.	1fn	vi-
=9	=9	=9	=9	=9	=9	=9	=9	=9	=9
2E\	-am,	2G/	-am,	2B\	-am,	1r	.	2e/	-am,
2E\	at-	2G/	at-	2B\	at-	.	.	2e/	at-
=10	=10	=10	=10	=10	=10	=10	=10	=10	=10
2.E\	-ten-	2.G/	-ten-	2.B\	-ten-	1r	.	2.e/	-ten-
4E\	-di-	4G/	-di-	4B\	-di-	.	.	4e/	-di-
=11	=11	=11	=11	=11	=11	=11	=11	=11	=11
!!linebreak:original
1AA	-te	1A	-te	1c#	-te	1r	.	1e	-te
=12	=12	=12	=12	=12	=12	=12	=12	=12	=12
[1D	et	[1A	et	[1d	et	1r	.	[1f#	et
=13	=13	=13	=13	=13	=13	=13	=13	=13	=13
2D\]	.	2A/]	.	2d\]	.	1r	.	2f#/]	.
2AA/	vi-	2A/	vi-	2c\	vi-	.	.	2e/	vi-
=14	=14	=14	=14	=14	=14	=14	=14	=14	=14
1AA	-de-	1A	-de-	1c	-de-	1r	.	1e	-de-
=15	=15	=15	=15	=15	=15	=15	=15	=15	=15
[1E	-te	[1G#	-te	[1B	-te	1r	.	[1e	-te
=16	=16	=16	=16	=16	=16	=16	=16	=16	=16
1E]	.	1G#]	.	1B]	.	1r	.	1e]	.
=17||	=17||	=17||	=17||	=17||	=17||	=17||	=17||	=17||	=17||
1r	.	[1A	Si	1r	.	1r	.	1e	Si
=18	=18	=18	=18	=18	=18	=18	=18	=18	=18
1r	.	2A/]	.	1r	.	1r	.	2f#/	est
.	.	2B\	est	.	.	.	.	2g/	do-
=19	=19	=19	=19	=19	=19	=19	=19	=19	=19
1r	.	2c\	do-	1r	.	1r	.	2e/	-lor
.	.	2A/	-lor	.	.	.	.	[2a/	si-
=20	=20	=20	=20	=20	=20	=20	=20	=20	=20
1E	Si	2c\	si-	2r	.	1r	.	2a/]	.
.	.	2B\	-mi-	[2e\	sic-	.	.	2g/	-mi-
=21	=21	=21	=21	=21	=21	=21	=21	=21	=21
1F#	est	1A	-lis	2e\]	.	1r	.	1a	-lis
.	.	.	.	2d\	-ut	.	.	.	.
=22	=22	=22	=22	=22	=22	=22	=22	=22	=22
1G	do-	2r	.	1B	do-	1r	.	1r	.
.	.	[2E/	sic-	.	.	.	.	.	.
=23	=23	=23	=23	=23	=23	=23	=23	=23	=23
!!pagebreak:original
2E\	-lor	2E/]	.	1c	-lor	1r	.	2r	.
[2A\	si-	2Fni/	-ut	.	.	.	.	[2fn/	sic-
=24	=24	=24	=24	=24	=24	=24	=24	=24	=24
2A\]	.	2D/	do-	1B	me-	1r	.	2f/]	.
2G\	-mi-	2E/	-lor	.	.	.	.	2e/	-ut
=25	=25	=25	=25	=25	=25	=25	=25	=25	=25
1A	-lis	1F#	me-	1A	-us	1r	.	2c/	do-
.	.	.	.	.	.	.	.	2d/	-lor
=26	=26	=26	=26	=26	=26	=26	=26	=26	=26
[1AA	sic-	2E/	-us	[1c	do-	1r	.	[1e	me-
.	.	[2A/	sic-	.	.	.	.	.	.
=27	=27	=27	=27	=27	=27	=27	=27	=27	=27
2AA/]	.	2A/]	.	2c\]	.	1r	.	1e]	.
2BB/	-ut	2G/	-ut	2B\	-lor	.	.	.	.
=28	=28	=28	=28	=28	=28	=28	=28	=28	=28
1C	do-	1E	do-	2G/	me-	1r	.	1e	-us
.	.	.	.	2A/	.	.	.	.	.
=29	=29	=29	=29	=29	=29	=29	=29	=29	=29
2BB/	-lor	2F#/	-lor	[1B	.	1r	.	[1d#	sic-
[2BB/	do-	[2F#/	do-	.	.	.	.	.	.
=30	=30	=30	=30	=30	=30	=30	=30	=30	=30
2BB/]	.	2F#/]	.	1B_	.	1r	.	2d#/]	.
2E\	-lor	2G/	-lor	.	.	.	.	2e/	-ut
=31	=31	=31	=31	=31	=31	=31	=31	=31	=31
2E\	me-	2E/	me-	1B_	.	1r	.	2g/	do-
2D#\	.	2F#/	.	.	.	.	.	2f#/	-lor
=32	=32	=32	=32	=32	=32	=32	=32	=32	=32
1E	.	1G	.	1B]	.	1r	.	1e	me-
=33	=33	=33	=33	=33	=33	=33	=33	=33	=33
[1BB	-us.	[1F#	-us.	[1B	-us.	1r	.	[1d#	-us.
=34	=34	=34	=34	=34	=34	=34	=34	=34	=34
1BB]	.	1F#]	.	1B]	.	1r	.	1d#]	.
=35||	=35||	=35||	=35||	=35||	=35||	=35||	=35||	=35||	=35||
!!linebreak:original
1r	.	1r	.	1B	At-	1r	.	1r	.
=36	=36	=36	=36	=36	=36	=36	=36	=36	=36
1r	.	1r	.	[1c	-ten-	1r	.	1e	At-
=37	=37	=37	=37	=37	=37	=37	=37	=37	=37
1r	.	1r	.	2c\]	.	1r	.	[1g	-ten-
.	.	.	.	2d\	-di-	.	.	.	.
=38	=38	=38	=38	=38	=38	=38	=38	=38	=38
1r	.	1r	.	2e\	-te,	1r	.	2g/]	.
.	.	.	.	2d\	u-	.	.	2a/	-di-
=39	=39	=39	=39	=39	=39	=39	=39	=39	=39
1r	.	1r	.	2d\	-ni-	1r	.	2b\	-te,
.	.	.	.	[2e\	-ver-	.	.	2g/	u-
=40	=40	=40	=40	=40	=40	=40	=40	=40	=40
1r	.	1r	.	2e\]	.	1r	.	2a/	-ni-
.	.	.	.	2d\	-si	.	.	2b\	-ver-
=41	=41	=41	=41	=41	=41	=41	=41	=41	=41
1r	.	1r	.	1c	po-	1r	.	2e/	-si
.	.	.	.	.	.	.	.	[2a/	po-
=42	=42	=42	=42	=42	=42	=42	=42	=42	=42
1r	.	1r	.	1B	-pu-	1r	.	2a/]	.
.	.	.	.	.	.	.	.	2g#/	-pu-
=43	=43	=43	=43	=43	=43	=43	=43	=43	=43
1r	.	1r	.	1A	-li,	1r	.	1a	-li,
=44	=44	=44	=44	=44	=44	=44	=44	=44	=44
1r	.	1r	.	2r	.	1b	et	2r	.
.	.	.	.	[2e\	et	.	.	[2g/	et
=45	=45	=45	=45	=45	=45	=45	=45	=45	=45
!!linebreak:original
1r	.	1r	.	2e\]	.	1g	vi-	2g/]	.
.	.	.	.	[2c\	vi-	.	.	[2e/	vi-
=46	=46	=46	=46	=46	=46	=46	=46	=46	=46
1r	.	1r	.	2c\]	.	1a	-de-	2e/]	.
.	.	.	.	[2d\	-de-	.	.	[2f#/	-de-
=47	=47	=47	=47	=47	=47	=47	=47	=47	=47
1r	.	1r	.	2d\]	.	1b	-te	2f#/]	.
.	.	.	.	2e\	-te	.	.	2g/	-te
=48	=48	=48	=48	=48	=48	=48	=48	=48	=48
1r	.	1r	.	[1e	do-	2g#/	do-	2b\	do-
.	.	.	.	.	.	[2a/	-lo-	[2cc\	-lo-
=49	=49	=49	=49	=49	=49	=49	=49	=49	=49
1r	.	1r	.	1e]	.	2a/]	.	2cc\]	.
.	.	.	.	.	.	2g#/	-rem	2b\	-rem
=50	=50	=50	=50	=50	=50	=50	=50	=50	=50
1r	.	1r	.	1fn	-lo-	2.cc\	me-	[1a	me-
.	.	.	.	.	.	8b/L	.	.	.
.	.	.	.	.	.	8a/J	.	.	.
=51	=51	=51	=51	=51	=51	=51	=51	=51	=51
1r	.	1r	.	[1e	.	2b\	.	2a/]	.
.	.	.	.	.	.	2b\	-um	2g#i/	-um
=52	=52	=52	=52	=52	=52	=52	=52	=52	=52
1r	.	1r	.	1e]	.	2g#/	do-	2b\	do-
.	.	.	.	.	.	[2a/	-lo-	[2cc\	-lo-
=53	=53	=53	=53	=53	=53	=53	=53	=53	=53
1r	.	1r	.	1e	-rem	2a/]	.	2cc\]	.
.	.	.	.	.	.	2g#i/	-rem	2b\	-rem
=54	=54	=54	=54	=54	=54	=54	=54	=54	=54
1r	.	1r	.	1A	me-	1cc	me-	[1a	me-
=55	=55	=55	=55	=55	=55	=55	=55	=55	=55
1r	.	1r	.	[1e	-um.	[1b	-um.	2a/]	.
.	.	.	.	.	.	.	.	4g#/	.
.	.	.	.	.	.	.	.	4f#/	.
=56	=56	=56	=56	=56	=56	=56	=56	=56	=56
1r	.	1r	.	1e]	.	1b]	.	1g#	-um.
!!pagebreak:original
=57||	=57||	=57||	=57||	=57||	=57||	=57||	=57||	=57||	=57||
!!pagebreak:original
1r	.	[1A	Si	1r	.	1e	Si	1r	.
=58	=58	=58	=58	=58	=58	=58	=58	=58	=58
1r	.	2A/]	.	1r	.	2f#/	est	1r	.
.	.	2B\	est	.	.	2g/	do-	.	.
=59	=59	=59	=59	=59	=59	=59	=59	=59	=59
1r	.	2c\	do-	1r	.	2e/	-lor	1r	.
.	.	2A/	-lor	.	.	[2a/	si-	.	.
=60	=60	=60	=60	=60	=60	=60	=60	=60	=60
1E	Si	2c\	si-	2r	.	2a/]	.	1r	.
.	.	2B\	-mi-	[2e\	sic-	2g/	-mi-	.	.
=61	=61	=61	=61	=61	=61	=61	=61	=61	=61
1F#	est	1A	-lis	2e\]	.	1a	-lis	1r	.
.	.	.	.	2d\	-ut	.	.	.	.
=62	=62	=62	=62	=62	=62	=62	=62	=62	=62
1G	do-	2r	.	1B	do-	1r	.	1r	.
.	.	[2E/	sic-	.	.	.	.	.	.
=63	=63	=63	=63	=63	=63	=63	=63	=63	=63
2E\	-lor	2E/]	.	1c	-lor	2r	.	1r	.
[2A\	si-	2Fni/	-ut	.	.	[2fni/	sic-	.	.
=64	=64	=64	=64	=64	=64	=64	=64	=64	=64
2A\]	.	2D/	do-	1B	me-	2f/]	.	1r	.
2G\	-mi-	2E/	-lor	.	.	2e/	-ut	.	.
=65	=65	=65	=65	=65	=65	=65	=65	=65	=65
1A	-lis	1F#	me-	1A	-us	2c/	do-	1r	.
.	.	.	.	.	.	2d/	-lor	.	.
=66	=66	=66	=66	=66	=66	=66	=66	=66	=66
[1AA	sic-	2E/	-us	[1c	do-	1e	me-	1r	.
.	.	[2A/	sic-	.	.	.	.	.	.
=67	=67	=67	=67	=67	=67	=67	=67	=67	=67
!!linebreak:original
2AA/]	.	2A/]	.	2c\]	.	[1e	-us	1r	.
2BB/	-ut	2G/	-ut	2B\	-lor	.	.	.	.
=68	=68	=68	=68	=68	=68	=68	=68	=68	=68
1C	do-	1E	do-	2G/	me-	1e]	.	1r	.
.	.	.	.	2A/	.	.	.	.	.
=69	=69	=69	=69	=69	=69	=69	=69	=69	=69
2BB/	-lor	2F#/	-lor	[1B	.	[1d#	sic-	1r	.
[2BB/	do-	[2F#/	do-	.	.	.	.	.	.
=70	=70	=70	=70	=70	=70	=70	=70	=70	=70
2BB/]	.	2F#/]	.	1B_	.	2d#/]	.	1r	.
2E\	-lor	2G/	-lor	.	.	2e/	-ut	.	.
=71	=71	=71	=71	=71	=71	=71	=71	=71	=71
2E\	me-	2E/	me-	1B_	.	2g/	do-	1r	.
2D#\	.	2F#/	.	.	.	2f#/	-lor	.	.
=72	=72	=72	=72	=72	=72	=72	=72	=72	=72
1E	.	1G	.	1B]	.	1e	me-	1r	.
=73	=73	=73	=73	=73	=73	=73	=73	=73	=73
[1BB	-us.	[1F#	-us.	[1B	-us.	[1d#	-us.	1r	.
=74	=74	=74	=74	=74	=74	=74	=74	=74	=74
1BB]	.	1F#]	.	1B]	.	1d#]	.	1r	.
==	==	==	==	==	==	==	==	==	==
*-	*-	*-	*-	*-	*-	*-	*-	*-	*-
!!!OTL: O, vos omnes 
!!!COM: Ingegneri, Marc' Antonio
!!!CDT: ca. 1535/36-1592-07-01
!!!TXO: Latin
!!!ODT: 
!!!ARL: Klasztor OO. Paulinów na Jasnej Górze
!!!voices:	5
!!title: @{OTL}, @{GTL}, ed. @{ENC}
!!!pag:
!!!GTL: Responsoria in Hebdomada majore
!!!EFL: 
!!!YEM: Creative Commons CC/BY/NC/SA 4.0
!!!ENC: Marcin Konik
!!!END: 2015-0m-dd
!!!EED: Marcin Konik
!!!EEV: 
!!!ONB: Encoded in vim by Marcin Konik
!!!CharacterEncoding: utf-8
!!!RDF**kern: l=long note in original notation
!!!RDF**kern: i=editorial accidental
!!muse2ps: z14jc180F
